X: 242
T: Mrs GARDEN OF TROUP
C: R. PETRIE
R: Reel
B: Glen Collection p.24 #2
Z: 2011 John Chambers <jc:trillian.mit.edu>
M: C|
L: 1/8
V: 1 middle=B clef=treble
V: 2 middle=d clef=bass
%%score {1 | 2}
K: F
%
V: 1
B |\
Acf2 af (Tfe/f/) | dfcA B(GGB) | Ac Tf(e/f/) af Tf(e/f/) | dfcf AFFB |
Ac Tf(e/f/) af f(e/f/) | dfcA BGGB | Acfa gafc | dfcB AFF ||
A/B/ |\
cAFc AFcA | B(dTcA) BG-GA/B/ | cAFc AFcA | Bdce f/f/ff2 |
cAFc AFcA B(dTcA) BGGB | Acfa Bdgb | afge fFF |]
%
V: 2
z |\
f2[f'2c'2a2] [f'2c'2a2][f'2c'2a2] | f2[f'2c'2a2] c2[e'2c'2b2] |\
f2[f'2c'2a2] [f'2c'2a2][f'2c'2a2] | B2c2 F2[f2c2] |
f2[f'2c'2a2] [f'2c'2a2][f'2c'2a2] | f2[f'2c'2a2] c2[e'2c'2b2] |\
f2[f'2c'2a2] [f'2c'2a2][f'2c'2a2] | B2c2 F2[af] ||
z |\
F2[a2f2c2] [a2f2c2][a2f2c2] | [g2e2c2][a2f2c2] [g2e2c2][g2e2c2] |\
F2[a2f2c2] [a2f2c2][a2f2c2] | [g2e2c2][b2g2c2] [a2f2][a2f2] |
F2[a2f2c2] [a2f2c2][a2f2c2] | [g2e2c2][a2f2c2] [g2e2c2][g2e2c2] |\
F2[f2c2] B2[g2d2] | [a2f2][b2c2] [a2f2][fF] |]
